teeny/outline/next-small.svg

<svg width="15" height="15" viewBox="0 0 15 15" fill="none" xmlns="http://www.w3.org/2000/svg">
<path d="M4.5 5.5L4.74807 5.06588C4.59332 4.97745 4.40319 4.97808 4.24904 5.06754C4.09488 5.15701 4 5.32176 4 5.5H4.5ZM4.5 9.5H4C4 9.67824 4.09488 9.84299 4.24904 9.93246C4.40319 10.0219 4.59332 10.0226 4.74807 9.93412L4.5 9.5ZM8 7.5L8.24807 7.93412C8.40386 7.8451 8.5 7.67943 8.5 7.5C8.5 7.32057 8.40386 7.1549 8.24807 7.06588L8 7.5ZM4 5.5V9.5H5V5.5H4ZM4.74807 9.93412L8.24807 7.93412L7.75193 7.06588L4.25193 9.06588L4.74807 9.93412ZM8.24807 7.06588L4.74807 5.06588L4.25193 5.93412L7.75193 7.93412L8.24807 7.06588ZM10 5V10H11V5H10Z" fill="black"/>
</svg>

<svg viewBox="0 0 15 15" xmlns="http://www.w3.org/2000/svg"><path d="M4.5 5.5l.24-.44c-.16-.09-.35-.09-.5 0 -.16.08-.25.25-.25.43h.5Zm0 4H4c0 .17.09.34.24.43 .15.08.34.09.49 0l-.25-.44Zm3.5-2l.24.43c.15-.09.25-.26.25-.44s-.1-.35-.26-.44l-.25.43Zm-4-2v4h1v-4H4Zm.74 4.43l3.5-2 -.5-.87 -3.5 2 .49.86Zm3.5-2.87l-3.5-2 -.5.86 3.5 2 .49-.87Zm1.75-2.07v5h1v-5h-1Z"/></svg>
